Qt/Resources/Icons/+X.svg

<svg width="64" height="64" xmlns="http://www.w3.org/2000/svg" data-name="Layer 1">

 <g>
  <title>Layer 1</title>
  <path id="svg_1" fill="#0000ff" d="m39.15,18.2l9.31,-14l9.32,14l-5,0l0,21.26l-8.68,0l0,-21.26l-4.95,0z"/>
  <path id="svg_2" fill="#6f6f59" d="m52.83,40.58l-8.73,0a1.12,1.12 0 0 1 -1.1,-1.12l0,-20.13l-3.85,0a1.13,1.13 0 0 1 -0.94,-1.75l9.31,-14a1.14,1.14 0 0 1 0.94,-0.5l0,0a1.14,1.14 0 0 1 0.94,0.5l9.32,14.05a1.13,1.13 0 0 1 -0.94,1.75l-3.78,0l0,20.08a1.12,1.12 0 0 1 -1.17,1.12zm-7.61,-2.25l6.49,0l0,-20.13a1.13,1.13 0 0 1 1.12,-1.13l2.85,0l-7.22,-10.88l-7.21,10.88l2.85,0a1.13,1.13 0 0 1 1.12,1.13l0,20.13z"/>
  <path id="svg_3" fill="#00ff00" d="m17.89,58.79l-14,-9.31l14,-9.32l0,4.94l21.26,0l0,8.74l-21.26,0l0,4.95z"/>
  <path id="svg_4" fill="#6f6f59" d="m17.89,59.91a1.17,1.17 0 0 1 -0.62,-0.18l-14,-9.31a1.15,1.15 0 0 1 -0.5,-0.94a1.14,1.14 0 0 1 0.5,-0.94l14.05,-9.32a1.12,1.12 0 0 1 1.75,0.94l0,3.84l20.08,0a1.13,1.13 0 0 1 1.13,1.12l0,8.74a1.14,1.14 0 0 1 -1.13,1.14l-20.15,0l0,3.82a1.11,1.11 0 0 1 -1.13,1.12l0.02,-0.03zm-12,-10.43l10.88,7.21l0,-2.85a1.13,1.13 0 0 1 1.12,-1.13l20.11,0l0,-6.48l-20.11,0a1.12,1.12 0 0 1 -1.12,-1.13l0,-2.84l-10.88,7.22z"/>
  <path transform="rotate(-180 48.23 49.23)" id="svg_5" d="m39,40l18.46,0l0,18.46l-18.46,0l0,-18.46z" opacity="undefined" fill="#ff0000"/>
  <path id="svg_6" fill="#6f6f59" d="m57.79,59.05l-18.47,0a1.14,1.14 0 0 1 -1.13,-1.13l0,-18.46a1.13,1.13 0 0 1 1.13,-1.13l18.47,0a1.12,1.12 0 0 1 1.12,1.13l0,18.46a1.13,1.13 0 0 1 -1.12,1.13zm-17.34,-2.26l16.21,0l0,-16.21l-16.21,0l0,16.21z"/>
  <path id="svg_7" fill="#787878" d="m14.27,20.61l4.57,0l0,3.2l-4.57,0l0,5.26l-3.5,0l0,-5.26l-4.6,0l0,-3.2l4.6,0l0,-5l3.5,0l0,5z"/>
  <path id="svg_8" fill="#787878" d="m27.88,19l3.47,-6.55l4.31,0l-5.48,9.15l5.82,9.32l-4.5,0l-3.57,-6.66l-3.57,6.66l-4.36,0l5.63,-9.32l-5.49,-9.16l4.3,0l3.44,6.56z"/>
 </g>
</svg>

<svg id="Layer_1" data-name="Layer 1" xmlns="http://www.w3.org/2000/svg" viewBox="0 0 64 64"><path d="M39.15,18.2l9.31-14L57.78,18.2h-5V39.46H44.1V18.2Z" style="fill:#a7d28c"/><path d="M52.83,40.58H44.1A1.12,1.12,0,0,1,43,39.46V19.33H39.15a1.13,1.13,0,0,1-.94-1.75l9.31-14a1.14,1.14,0,0,1,.94-.5h0a1.14,1.14,0,0,1,.94.5l9.32,14.05a1.13,1.13,0,0,1-.94,1.75H54V39.46A1.12,1.12,0,0,1,52.83,40.58Zm-7.61-2.25h6.49V18.2a1.13,1.13,0,0,1,1.12-1.13h2.85L48.46,6.19,41.25,17.07H44.1a1.13,1.13,0,0,1,1.12,1.13Z" style="fill:#6f6f59"/><path d="M17.89,58.79l-14-9.31,14-9.32V45.1H39.15v8.74H17.89Z" style="fill:#f3c017"/><path d="M17.89,59.91a1.17,1.17,0,0,1-.62-.18l-14-9.31a1.15,1.15,0,0,1-.5-.94,1.14,1.14,0,0,1,.5-.94l14.05-9.32a1.12,1.12,0,0,1,1.75.94V44H39.15a1.13,1.13,0,0,1,1.13,1.12v8.74A1.14,1.14,0,0,1,39.15,55H19v3.82a1.11,1.11,0,0,1-1.13,1.12Zm-12-10.43,10.88,7.21V53.84a1.13,1.13,0,0,1,1.12-1.13H38V46.23H17.89a1.12,1.12,0,0,1-1.12-1.13V42.26Z" style="fill:#6f6f59"/><rect x="39.32" y="39.46" width="18.46" height="18.46" transform="translate(97.11 97.37) rotate(-180)" style="fill:#de4130"/><path d="M57.79,59.05H39.32a1.14,1.14,0,0,1-1.13-1.13V39.46a1.13,1.13,0,0,1,1.13-1.13H57.79a1.12,1.12,0,0,1,1.12,1.13V57.92A1.13,1.13,0,0,1,57.79,59.05ZM40.45,56.79H56.66V40.58H40.45Z" style="fill:#6f6f59"/><path d="M14.27,20.61h4.57v3.2H14.27v5.26h-3.5V23.81H6.17v-3.2h4.6v-5h3.5Z" style="fill:#787878"/><path d="M27.88,19l3.47-6.55h4.31L30.18,21.6,36,30.92H31.5l-3.57-6.66-3.57,6.66H20l5.63-9.32-5.49-9.16h4.3Z" style="fill:#787878"/></svg>
